icons/svg/file-cloud.svg

﻿<?xml version="1.0" encoding="utf-8"?>
<!DOCTYPE svg PUBLIC "-//W3C//DTD SVG 1.1//EN" "http://www.w3.org/Graphics/SVG/1.1/DTD/svg11.dtd">
<svg xmlns="http://www.w3.org/2000/svg" xmlns:xlink="http://www.w3.org/1999/xlink" version="1.1" baseProfile="full" width="24" height="24" viewBox="0 0 24.00 24.00" enable-background="new 0 0 24.00 24.00" xml:space="preserve">
	<path fill="#000000" fill-opacity="1" stroke-width="0.2" stroke-linejoin="round" d="M 12.9994,8.99807L 18.4994,8.99807L 12.9994,3.49807L 12.9994,8.99807 Z M 5.99939,1.99807L 13.9994,1.99807L 19.9994,7.99807L 19.9994,19.9981C 19.9994,21.1021 19.1034,21.9981 17.9994,21.9981L 5.98938,21.9981C 4.88538,21.9981 3.99939,21.1021 3.99939,19.9981L 4.0094,3.99807C 4.0094,2.89407 4.89437,1.99807 5.99939,1.99807 Z M 15.6775,15.018C 15.3369,13.2975 13.8205,12 12,12C 10.554,12 9.3015,12.8195 8.67529,14.0185C 7.1715,14.18 6,15.453 6,17C 6,18.657 7.343,20 9,20L 15.5,20C 16.8805,20 18,18.881 18,17.5C 18,16.18 16.9735,15.1105 15.6775,15.018 Z "/>
</svg>

<svg xmlns="http://www.w3.org/2000/svg" version="1.1" baseProfile="full" width="24" height="24" viewBox="0 0 24.00 24.00" xml:space="preserve"><path fill="#000" fill-opacity="1" stroke-width=".2" stroke-linejoin="round" d="M13 8.998h5.5l-5.5-5.5v5.5zm-7-7h8l6 6v12c0 1.104-.897 2-2 2H5.99c-1.105 0-1.99-.896-1.99-2l.01-16c0-1.104.884-2 1.99-2zm9.678 13.02C15.338 13.298 13.82 12 12 12c-1.446 0-2.698.82-3.325 2.018C7.17 14.18 6 15.454 6 17c0 1.657 1.343 3 3 3h6.5c1.38 0 2.5-1.12 2.5-2.5 0-1.32-1.026-2.39-2.322-2.482z"/></svg>
